svgs/regular/mailbox.svg

<svg xmlns="http://www.w3.org/2000/svg" viewBox="0 0 576 512"><!-- Font Awesome Pro 6.0.0-alpha2 by @fontawesome - https://fontawesome.com License - https://fontawesome.com/license (Commercial License) --><path d="M184 192H104C90.746 192 80 202.744 80 216C80 229.254 90.746 240 104 240H184C197.254 240 208 229.254 208 216C208 202.744 197.254 192 184 192ZM432 64H144C64.5 64 0 128.5 0 208V416C0 433.625 14.375 448 32 448H544C561.625 448 576 433.625 576 416V208C576 128.5 511.5 64 432 64ZM240 400H48V208C48 155 91 112 144 112S240 155 240 208V400ZM528 400H288V208C288 171 273.625 137.5 250.625 112H432C485 112 528 155 528 208V400ZM464 192H360C346.801 192 336 202.799 336 216C336 229.199 346.801 240 360 240H416V272C416 280.836 423.164 288 432 288H464C472.836 288 480 280.836 480 272V208C480 199.162 472.836 192 464 192Z"/></svg>

<svg xmlns="http://www.w3.org/2000/svg" viewBox="0 0 576 512"><!-- Font Awesome Pro 5.15.1 by @fontawesome - https://fontawesome.com License - https://fontawesome.com/license (Commercial License) --><path d="M432 64H144A144 144 0 0 0 0 208v208a32 32 0 0 0 32 32h512a32 32 0 0 0 32-32V208A144 144 0 0 0 432 64zM240 400H48V208a96 96 0 0 1 192 0zm288 0H288V208c0-37.05-14.38-70.48-37.37-96H432a96.1 96.1 0 0 1 96 96zm-64-208H344a8 8 0 0 0-8 8v32a8 8 0 0 0 8 8h72v32a16 16 0 0 0 16 16h32a16 16 0 0 0 16-16v-64a16 16 0 0 0-16-16zm-280 0h-80a8 8 0 0 0-8 8v48a8 8 0 0 0 8 8h80a8 8 0 0 0 8-8v-48a8 8 0 0 0-8-8z"/></svg>
